src/icons/command-rollback.svg

<svg enable-background="new 0 0 14 14" viewBox="0 0 14 14" xmlns="http://www.w3.org/2000/svg"><path d="m10.8 3.2c0 .4.3.7.7.7h2.8c.4 0 .7-.3.7-.7v-2.8c0-.4-.3-.7-.7-.7s-.7.3-.7.7v1.4c-1.3-1.7-3.3-2.8-5.6-2.8-3.9 0-7 3.1-7 7s3.1 7 7 7 7-3.1 7-7c0-.4-.3-.7-.7-.7s-.7.3-.7.7c0 3.1-2.5 5.6-5.6 5.6s-5.6-2.5-5.6-5.6 2.5-5.6 5.6-5.6c1.8 0 3.3.8 4.4 2.1h-.9c-.4 0-.7.3-.7.7z" fill="#4d5969" transform="translate(-1 1)"/></svg>

<?xml version="1.0" encoding="utf-8"?>
<!-- Generator: Adobe Illustrator 20.1.0, SVG Export Plug-In . SVG Version: 6.00 Build 0)  -->
<svg version="1.1" id="Layer_1" xmlns="http://www.w3.org/2000/svg" xmlns:xlink="http://www.w3.org/1999/xlink" x="0px" y="0px"
	 viewBox="0 0 14 14" style="enable-background:new 0 0 14 14;" xml:space="preserve">
<style type="text/css">
	.st0{fill:#4D5969;}
</style>
<title>HDL/Icon/Standard/Command/rollback</title>
<desc>Created with Sketch.</desc>
<g id="Colors">
	<g id="Command-Icons" transform="translate(-123.000000, -641.000000)">
		<g id="Rollback" transform="translate(101.000000, 623.000000)">
			<g id="HDL_x2F_Icon_x2F_Standard_x2F_Command_x2F_rollback" transform="translate(21.000000, 19.000000)">
				<path id="Path" class="st0" d="M10.8,3.2c0,0.4,0.3,0.7,0.7,0.7h2.8c0.4,0,0.7-0.3,0.7-0.7V0.4c0-0.4-0.3-0.7-0.7-0.7
					S13.6,0,13.6,0.4v1.4C12.3,0.1,10.3-1,8-1C4.1-1,1,2.1,1,6s3.1,7,7,7s7-3.1,7-7c0-0.4-0.3-0.7-0.7-0.7S13.6,5.6,13.6,6
					c0,3.1-2.5,5.6-5.6,5.6S2.4,9.1,2.4,6S4.9,0.4,8,0.4c1.8,0,3.3,0.8,4.4,2.1h-0.9C11.1,2.5,10.8,2.8,10.8,3.2z"/>
			</g>
		</g>
	</g>
</g>
</svg>
